X: 42853
T: Wild Hills Of Wannie, The
R: waltz
M: 3/4
K: Edorian
d>c|B2- B>E E2|E2- E>F E2|B2- B>A B2|d4 c<B|
A2- A>F E2|D2- D>E D2|F2 D2 F2|A4 d<c|
B2- B>E E2|E2- E>F E2|B2 A2 B2|e4 d<c|
d2- d>c B2|A<F- F2 A2|B2 E2 E2|E4-||
(3EBd|e2- e>f e2|B2 c2 d2|e2- e>f e2|B4 c2|
d2- d>c B2|A2 B2 c2|d2- d>c B2|A4 d2|
e2- e>f e2|B2 c2 d2|e2- e>f e2|B4 c>c|
d2- d>c B2|A<F- F2 A2|B2 E2 E2|E4||

